svg/device/microscope_line.svg

<?xml version="1.0" encoding="UTF-8"?>
<svg width="24px" height="24px" viewBox="0 0 24 24" version="1.1" xmlns="http://www.w3.org/2000/svg" xmlns:xlink="http://www.w3.org/1999/xlink">
    <title>microscope_line</title>
    <g id="页面-1" stroke="none" stroke-width="1" fill="none" fill-rule="evenodd">
        <g id="Device" transform="translate(-912.000000, -96.000000)">
            <g id="microscope_line" transform="translate(912.000000, 96.000000)">
                 <path d="M24,0 L24,24 L0,24 L0,0 L24,0 Z M12.5934901,23.257841 L12.5819402,23.2595131 L12.5108777,23.2950439 L12.4918791,23.2987469 L12.4918791,23.2987469 L12.4767152,23.2950439 L12.4056548,23.2595131 C12.3958229,23.2563662 12.3870493,23.2590235 12.3821421,23.2649074 L12.3780323,23.275831 L12.360941,23.7031097 L12.3658947,23.7234994 L12.3769048,23.7357139 L12.4804777,23.8096931 L12.4953491,23.8136134 L12.4953491,23.8136134 L12.5071152,23.8096931 L12.6106902,23.7357139 L12.6232938,23.7196733 L12.6232938,23.7196733 L12.6266527,23.7031097 L12.609561,23.275831 C12.6075724,23.2657013 12.6010112,23.2592993 12.5934901,23.257841 L12.5934901,23.257841 Z M12.8583906,23.1452862 L12.8445485,23.1473072 L12.6598443,23.2396597 L12.6498822,23.2499052 L12.6498822,23.2499052 L12.6471943,23.2611114 L12.6650943,23.6906389 L12.6699349,23.7034178 L12.6699349,23.7034178 L12.678386,23.7104931 L12.8793402,23.8032389 C12.8914285,23.8068999 12.9022333,23.8029875 12.9078286,23.7952264 L12.9118235,23.7811639 L12.8776777,23.1665331 C12.8752882,23.1545897 12.8674102,23.1470016 12.8583906,23.1452862 L12.8583906,23.1452862 Z M12.1430473,23.1473072 C12.1332178,23.1423925 12.1221763,23.1452606 12.1156365,23.1525954 L12.1099173,23.1665331 L12.0757714,23.7811639 C12.0751323,23.7926639 12.0828099,23.8018602 12.0926481,23.8045676 L12.108256,23.8032389 L12.3092106,23.7104931 L12.3186497,23.7024347 L12.3186497,23.7024347 L12.3225043,23.6906389 L12.340401,23.2611114 L12.337245,23.2485176 L12.337245,23.2485176 L12.3277531,23.2396597 L12.1430473,23.1473072 Z" id="MingCute" fill-rule="nonzero"></path>
                <path d="M15.6821,3.28244 C16.4219947,2.54249789 17.5974496,2.50355357 18.3832778,3.16560704 L18.5105,3.28244 L19.2176,3.98955 C19.9574947,4.72949211 19.9964366,5.90497637 19.3344255,6.69076502 L19.2176,6.81798 L18.5105,7.52508 C18.4486,7.58693 18.3837,7.64388 18.3163,7.69593 C18.4882692,8.31620077 18.3557935,9.00318018 17.9189514,9.52068987 L17.8034,9.6464 L16.8129,10.6369 C18.1532,11.8265 19,13.5643 19,15.5 C19,17.1437647 18.3898519,18.6450021 17.3836515,19.7896163 L17.1904,20 L20,20 C20.5523,20 21,20.4477 21,21 C21,21.51285 20.613973,21.9355092 20.1166239,21.9932725 L20,22 L4,22 C3.44772,22 3,21.5523 3,21 C3,20.48715 3.38604429,20.0644908 3.88337975,20.0067275 L4,20 L12.5,20 C14.9853,20 17,17.9853 17,15.5 C17,14.2044687 16.4532324,13.0365547 15.5750842,12.2144463 L15.3951,12.0547 L12.1465,15.3033 C11.4066053,16.0431947 10.2310607,16.0821366 9.44529955,15.4201255 L9.31809,15.3033 L7.19677,13.1819 C6.45682789,12.4420053 6.41788357,11.2665504 7.07993704,10.4807222 L7.19677,10.3535 L12.8536,4.6966525 C13.3819,4.16839 14.1321,3.99742 14.8041,4.18374 L14.885825,4.084545 L14.885825,4.084545 L14.9749,3.98955 L15.6821,3.28244 Z M6.48967,13.889 L8.61099,16.0104 C9.00151,16.4009 9.00151,17.0341 8.61099,17.4246 C8.22046,17.8151 7.5873,17.8151 7.19677,17.4246 L5.07545,15.3033 C4.68493,14.9127 4.68493,14.2796 5.07545,13.889 C5.46598,13.4985 6.09914,13.4985 6.48967,13.889 Z M14.2678,6.11087 L8.61099,11.7677 L10.7323,13.889 L16.3892,8.23219 L14.2678,6.11087 Z M17.0963,4.69666 L16.3892,5.40376 L17.0963,6.11087 L17.8034,5.40376 L17.0963,4.69666 Z" id="形状" fill="#09244B"></path>
            </g>
        </g>
    </g>
</svg>

<svg xmlns="http://www.w3.org/2000/svg" width="24" height="24"><g fill="none" fill-rule="evenodd"><path d="M24 0v24H0V0h24ZM12.593 23.258l-.011.002-.071.035-.02.004-.014-.004-.071-.035c-.01-.004-.019-.001-.024.005l-.004.01-.017.428.005.02.01.013.104.074.015.004.012-.004.104-.074.012-.016.004-.017-.017-.427c-.002-.01-.009-.017-.017-.018Zm.265-.113-.013.002-.185.093-.01.01-.003.011.018.43.005.012.008.007.201.093c.012.004.023 0 .029-.008l.004-.014-.034-.614c-.003-.012-.01-.02-.02-.022Zm-.715.002a.023.023 0 0 0-.027.006l-.006.014-.034.614c0 .012.007.02.017.024l.015-.002.201-.093.01-.008.004-.011.017-.43-.003-.012-.01-.01-.184-.092Z"/><path fill="#09244B" d="M15.682 3.282a2 2 0 0 1 2.701-.116l.128.116.707.708a2 2 0 0 1 .116 2.7l-.116.128-.707.707a2.031 2.031 0 0 1-.195.17 2 2 0 0 1-.397 1.826l-.116.125-.99.99A6.486 6.486 0 0 1 19 15.5c0 1.644-.61 3.145-1.616 4.29l-.194.21H20a1 1 0 0 1 .117 1.993L20 22H4a1 1 0 0 1-.117-1.993L4 20h8.5a4.5 4.5 0 0 0 3.075-7.786l-.18-.16-3.248 3.25a2 2 0 0 1-2.702.116l-.127-.117-2.121-2.121a2 2 0 0 1-.117-2.701l.117-.127 5.657-5.657a2 2 0 0 1 1.95-.513l.082-.1.089-.094.707-.708ZM6.49 13.89 8.61 16.01a1 1 0 1 1-1.414 1.415l-2.122-2.122A1 1 0 0 1 6.49 13.89Zm7.778-7.778L8.61 11.768l2.121 2.121 5.657-5.657-2.121-2.121Zm2.828-1.414-.707.707.707.707.707-.707-.707-.707Z"/></g></svg>
